X:186
T:Deep Blue Sea
Z:Jack Campin, http://www.campin.me.uk/
B:Hootenanny Song Book
M:4/4
L:1/4
Q:1/4=100
K:G
B2 c2 |B2 _B<=B|                   G2 E2|D4 |
B2 c2 |B2  A< G|                   c2 B2|A4 |
B2 c2 |B2 _B<=B|                   G2 E2|D4 |
GG G<D|GG  G< D|[M:2/4] Gc|[M:4/4] B2 A2|G4|]

